epam-assets/icon-sources/18/content-edit.svg

<svg width="18" height="18" viewBox="0 0 18 18" fill="none" xmlns="http://www.w3.org/2000/svg">
<g id="18/content-edit">
<path id="icon" d="M14.475 6.69375L11.2875 3.54375L12.3375 2.49375C12.625 2.20625 12.9783 2.0625 13.3973 2.0625C13.8158 2.0625 14.1687 2.20625 14.4562 2.49375L15.5062 3.54375C15.7937 3.83125 15.9437 4.17825 15.9562 4.58475C15.9688 4.99075 15.8313 5.3375 15.5438 5.625L14.475 6.69375ZM13.3875 7.8L5.4375 15.75H2.25V12.5625L10.2 4.6125L13.3875 7.8Z" fill="#6C6F80"/>
</g>
</svg>

<svg xmlns="http://www.w3.org/2000/svg" width="18" height="18" fill="none" viewBox="0 0 18 18">
  <path fill="#6C6F80" d="m14.475 6.694-3.188-3.15 1.05-1.05a1.44 1.44 0 0 1 1.06-.432c.419 0 .772.144 1.06.432l1.05 1.05c.287.287.437.634.45 1.04.012.407-.126.754-.413 1.041l-1.069 1.069ZM13.387 7.8l-7.95 7.95H2.25v-3.188l7.95-7.95L13.388 7.8Z"/>
</svg>
